X:174
T: ES ZOG EIN MANN DURCH ASIENLAND
N: K2352
O: Europa, Mitteleuropa, Deutschland, Kassel
R: Kinder - Lied, Reigen, Tanz - Spiel, Ballade
M: 2/4
L: 1/16
K: G
D2 | G2G2G2B2 | G3DD2B2 | G4z2
B2 | B2B2B2B2 | B3AG2z2
A2A2A2A2 | G2B2d2
B2 | c2c2c2c2 | B3BB4
A2A2A2A2 | G4z2

